X:1
T:Title
%%score { ( 1 4 5 ) | ( 2 3 6 ) }
L:1/8
M:4/4
K:F
V:1 treble nm="Grand Piano"
V:4 treble 
V:5 treble 
V:2 bass 
V:3 bass 
V:6 bass 
V:1
 z4 z2[Q:1/4=100] C2 | [A,CF]>F F>F [A,CF]>F F>A |[M:3/4] [CFAc]2 [F,A,F]2 [A,CF]2 |[M:1/4] E z | %4
[M:4/4] [CEG]2 [EGc]2 [CEGc]BAG |[M:3/4] .[CFA]2 z g [fa]c' |[M:1/4] C3/2 z/ | %7
[M:4/4] [A,CF]>F F>F [A,CF]>F F>A |[M:3/4] [CFAc]2 [F,A,F]2 [A,CF]2 |[M:1/4] [CFA][FA] | %10
[M:4/4] [=B,DFG]G=BA [B,DG]FED | EC z d [Ge]c C2 | [CEB]2 [CEB]2 .[CEB]>[K:bass]_E, E[K:treble]C | %13
[M:3/4] [CFA]2 [CFA]2 [CFA]B |[M:1/4] AG |[M:4/4] F2 F>E DEFG | [CEG]2 C/C/C C2 CC | %17
[M:3/4] [CEB]2 [CEB]2 [CEB]D |[M:1/4] EC |[M:4/4] [CFA]2 [CFA]2 [CFA]2 [CA]A | G2 =BA GFED | %21
[M:5/8] C2 C/C/ CC |[M:3/8] CDE |[M:4/4] F2 G2 [CA]2 [F,A,CF]2 | c6[K:bass][K:treble] z2 | %25
 [CE]c z A[K:bass] z[K:treble] BAG |[M:5/8] Fc z c[K:bass]C,, |[M:3/8] C[K:treble]DE | %28
[M:4/4] F2 G2 [CA]2 F2 | d6 z2 | [CFAc]2 FF EBAG |[M:3/4] F2 .[CEGc]2 .[FAcf]2 |] %32
V:2
 z4 z2 z z/ C/ | F,,2 [C,F,A,]2 C,,2 [C,F,A,]2 |[M:3/4] F,,2 C,2 C,,2 |[M:1/4] z F | %4
[M:4/4] E,,2 [C,E,B,C]2 C,,2 [C,E,B,]2 |[M:3/4] z2 z[K:treble] e z a |[M:1/4][K:bass] z z/ C/ | %7
[M:4/4] F,,2 [C,F,A,]2 C,,2 [C,F,A,]2 |[M:3/4] F,,2 C,2 C,,2 |[M:1/4] z C | %10
[M:4/4] D,,2 [D,F,=B,]2 G,,2 [D,F,B,]2 | [C,,C,]2 [C,E,G,]2 z E z z/ C/ | %12
 C,>^C, D,>_E, =E,2 [E,C]=C, |[M:3/4] F,,>^F,, G,,>_A,, =A,,G,, |[M:1/4] F,,E,, | %15
[M:4/4] D,,2 [D,F,A,]2 G,,2 [D,F,=B,]2 | B,,,2 [C,E,G,]2 [C,E,G,]2 z2 | %17
[M:3/4] C,>^C, D,>_E, =E,D, |[M:1/4] [E,C]C, |[M:4/4] z4 z2 F,2 | G,,2 [D,F,=B,]2 A,,2 [D,F,B,]2 | %21
[M:5/8] C,,2 [C,E,G,]2 C,, |[M:3/8] C,D,E, |[M:4/4] [F,,F,]2 [C,F,A,C]2 C,,2 C,2 | %24
 z [CF] z[K:treble] [CF] z [CF][K:bass] z C | G,,2 z E z E z E |[M:5/8] F,,2 z[K:treble] [FA] z | %27
[M:3/8][K:bass] C,D,E, |[M:4/4] [F,,F,]2 [C,F,A,C]2 C,,2 [C,F,A,C]2 | %29
 [B,,,B,,]2 [D,F,B,]2 [B,,,B,,]2 .[D,F,B,D]2 | [C,,C,]2 [C,F,A,]2 C,,2 [C,E,B,]2 | %31
[M:3/4] [F,A,]2 [C,,C,]2 F,,2 |] %32
V:3
 z4 z2 C,2 | x8 |[M:3/4] x6 |[M:1/4] C,2 |[M:4/4] x8 |[M:3/4] z .A3[K:treble] z2 | %6
[M:1/4][K:bass] C,2 |[M:4/4] x8 |[M:3/4] x6 |[M:1/4] [C,F,A,]2 |[M:4/4] x8 | z4 C,,2 C,2 | x8 | %13
[M:3/4] x6 |[M:1/4] x2 |[M:4/4] x8 | x8 |[M:3/4] x6 |[M:1/4] x2 | %19
[M:4/4] F,,>^F,, G,,>_A,, =A,,C, z C | x8 |[M:5/8] x5 |[M:3/8] x3 |[M:4/4] x8 | %24
 F,,2 [B,,F,]2[K:treble] z2[K:bass] [C,F,A,]2 | z2 [C,E,]2 z2 [C,E,B,]2 | %26
[M:5/8] z2 [C,F,]2[K:treble] z |[M:3/8][K:bass] x3 |[M:4/4] x8 | x8 | x8 |[M:3/4] x6 |] %32
V:4
 x8 | x8 |[M:3/4] x6 |[M:1/4] [F,A,]2 |[M:4/4] x8 |[M:3/4] z .c3 z2 |[M:1/4] x2 |[M:4/4] x8 | %8
[M:3/4] x6 |[M:1/4] x2 |[M:4/4] x8 | z2 C2 z4 | z4 z D[K:bass] z2[K:treble] |[M:3/4] x6 | %14
[M:1/4] x2 |[M:4/4] x8 | x8 |[M:3/4] x6 |[M:1/4] x2 |[M:4/4] x8 | x8 |[M:5/8] x5 |[M:3/8] x3 | %23
[M:4/4] x8 | z A z A[K:bass] z[K:treble] AGF | z2 B,2[K:bass] C,,2[K:treble] z2 | %26
[M:5/8] z2 A,2[K:bass] z |[M:3/8] x[K:treble] x2 |[M:4/4] x8 | z2 .[DF]2 [DF]cBG | x8 | %31
[M:3/4] x6 |] %32
V:5
 x8 | x8 |[M:3/4] x6 |[M:1/4] x2 |[M:4/4] x8 |[M:3/4] z2 A,2 z2 |[M:1/4] x2 |[M:4/4] x8 | %8
[M:3/4] x6 |[M:1/4] x2 |[M:4/4] x8 | x8 | x11/2[K:bass] x3/2[K:treble] x |[M:3/4] x6 |[M:1/4] x2 | %15
[M:4/4] x8 | x8 |[M:3/4] x6 |[M:1/4] x2 |[M:4/4] x8 | x8 |[M:5/8] x5 |[M:3/8] x3 |[M:4/4] x8 | %24
 z2 A,2[K:bass] C,,2[K:treble] z2 | x4[K:bass] x[K:treble] x3 |[M:5/8] x4[K:bass] x | %27
[M:3/8] x[K:treble] x2 |[M:4/4] x8 | x8 | x8 |[M:3/4] x6 |] %32
V:6
 x8 | x8 |[M:3/4] x6 |[M:1/4] x2 |[M:4/4] x8 |[M:3/4] F,,2 [C,F,]2[K:treble] C,,2 | %6
[M:1/4][K:bass] x2 |[M:4/4] x8 |[M:3/4] x6 |[M:1/4] x2 |[M:4/4] x8 | x8 | x8 |[M:3/4] x6 | %14
[M:1/4] x2 |[M:4/4] x8 | x8 |[M:3/4] x6 |[M:1/4] x2 |[M:4/4] x8 | x8 |[M:5/8] x5 |[M:3/8] x3 | %23
[M:4/4] x8 | x3[K:treble] x3[K:bass] x2 | x8 |[M:5/8] x3[K:treble] x2 |[M:3/8][K:bass] x3 | %28
[M:4/4] x8 | x8 | x8 |[M:3/4] x6 |] %32

